X:7
T:No.127 Paddy Bartley's
M:4/4
L:1/8
C:highland
K:D
D2F>A d>A F>D|E>B e>d c>A (3Bcd|D2F>A d>A F>D|
[1A,<E C>E D2D>A,:|[2A,>E C>E E<D D>A||
d>e f>a g>f e>d|(3cdc e>c f>c e>c|
d>f g>f g>f e>d|d>b a>g f<d d>A|d>f a>f g>f e>d|
c>A (3AAA f>A e>A|d>f g>f g>f e>d|d>b a>g f<d d>A||
